X:1
T:The Sailor's Wife
L:1/8
M:6/8
I:linebreak $
K:F
V:1 treble nm="Voice" snm="Voice"
V:1
 E |"Dm" DEF E2 D | d2 e f2 [cf]4 | agf ec | A/=B/cA GEC |$ DEF E2 D | c2 e2 e2 |"Dm" afc ge^c | %8
 c2 c2 ::$ e | fga fga | ffa2 g3/2ge | ecg ecg | eeg gfe |$ fga agf | efg gee | afd ge^c | d3 d2 :| %18
